X:65
T:Batheing Machine
M:6/8
L:1/8
B:Thompson's Compleat Collection of 200 Favourite Country Dances, vol. 3 (London, 1773)
Z:Transcribed and edited by Flynn Titford-Mock, 2007
Z:abc's:AK/Fiddler's Companion
K:G
d | BGd BGd | BGd "tr"d2g | ecg ecg | eca "tr"a2b | gea fdg | ecd "tr"d2c | BGB cAc | BGG "tr"G2 :|
|: d | egd fad | gbd fad | egd fad | gbf e2g | dBg eca | fdb e2g | dBg cAc | BGG G2 :|

